X:1
T: Patty's Flute
C:
R:Strathspey
Q: 128
K:F
M:4/4
L:1/16
|:c4|A3c c2de f6 ed|cA3 c3A B6 AG|F3G A3F B3c d3A|Bd3 c3A G6 c2|
A3c c2de f6 ed|cA3 c3A B6 AG|F3G A3F DF3 B3d|cA3 G3A F4 ((3c2d2e2) |
f4 e3d cA3 A3c|d3c B2A2 G4 ((3c2d2e2) |f4 e3d cA3 A3c|d3c d2f2 g6 fg|
af3 fc3 cA3 AF3|FC3 D3F C4 ((3C2D2E2) |F3G AF3 DF3 B3d|cA3 G3A F4:|
